austria/municipalities/32313.svg

<?xml version="1.0" encoding="UTF-8" standalone="no"?>
<!-- Created with Inkscape (http://www.inkscape.org/) -->
<svg
   xmlns:dc="http://purl.org/dc/elements/1.1/"
   xmlns:cc="http://web.resource.org/cc/"
   xmlns:rdf="http://www.w3.org/1999/02/22-rdf-syntax-ns#"
   xmlns:svg="http://www.w3.org/2000/svg"
   xmlns="http://www.w3.org/2000/svg"
   xmlns:sodipodi="http://sodipodi.sourceforge.net/DTD/sodipodi-0.dtd"
   xmlns:inkscape="http://www.inkscape.org/namespaces/inkscape"
   width="688.96875"
   height="767.77405"
   id="svg2"
   sodipodi:version="0.32"
   inkscape:version="0.45.1"
   version="1.0"
   sodipodi:docbase="D:\Chris\Daten\Graphik\svg\Wikipedia"
   sodipodi:docname="Katzelsdorf_Lower_Austria_CoA.svg"
   inkscape:output_extension="org.inkscape.output.svg.inkscape">
  <defs
     id="defs4" />
  <sodipodi:namedview
     id="base"
     pagecolor="#ffffff"
     bordercolor="#666666"
     borderopacity="1.0"
     inkscape:pageopacity="0.0"
     inkscape:pageshadow="2"
     inkscape:zoom="0.71683849"
     inkscape:cx="364.28571"
     inkscape:cy="335.36913"
     inkscape:document-units="px"
     inkscape:current-layer="layer1"
     inkscape:window-width="1280"
     inkscape:window-height="781"
     inkscape:window-x="0"
     inkscape:window-y="0" />
  <metadata
     id="metadata7">
    <rdf:RDF>
      <cc:Work
         rdf:about="">
        <dc:format>image/svg+xml</dc:format>
        <dc:type
           rdf:resource="http://purl.org/dc/dcmitype/StillImage" />
      </cc:Work>
    </rdf:RDF>
  </metadata>
  <g
     inkscape:label="Ebene 1"
     inkscape:groupmode="layer"
     id="layer1"
     transform="translate(-27.28125,-121.28125)">
    <g
       id="g2230">
      <g
         id="g7078">
        <path
           style="fill:#ff0000;fill-rule:evenodd;stroke:#000000;stroke-width:4;stroke-linecap:butt;stroke-linejoin:miter;stroke-miterlimit:4;stroke-dasharray:none;stroke-opacity:1"
           d="M 29.28125,123.28125 C 38.525888,261.33369 23.943702,405.29311 56.15625,537.65625 C 270.65055,405.24904 481.35832,407.48325 688.4375,538.3125 C 670.4072,602.96365 639.89726,751.1563 388.25,879.15625 C 775.92629,698.21957 696.09908,398.27894 714.25,123.28125 L 29.28125,123.28125 z M 61.125,556.65625 C 71.803591,594.65235 86.680527,631.60962 107.5,667.09375 C 85.681346,628.63368 72.558838,591.32624 61.125,556.65625 z "
           id="path2170" />
        <g
           id="g6080">
          <path
             id="path3148"
             d="M 375.25,314.40625 C 307.48578,314.40625 252.49999,369.39203 252.5,437.15625 C 252.5,442.65629 252.89173,448.06576 253.59375,453.375 C 335.21952,434.17148 416.28419,434.61899 496.8125,454.375 C 497.60366,448.74738 498.03125,443.00091 498.03125,437.15625 C 498.03125,369.39203 443.01422,314.40624 375.25,314.40625 z "
             style="opacity:1;fill:#ececec;fill-opacity:1;fill-rule:evenodd;stroke:#000000;stroke-width:4;stroke-linecap:butt;stroke-linejoin:round;stroke-miterlimit:4;stroke-dasharray:none;stroke-dashoffset:0;stroke-opacity:1" />
          <path
             id="path4122"
             d="M 33.46875,332.53125 C 38.306129,398.69831 41.615844,463.83301 57.09375,537.09375 C 121.62911,497.37159 185.83421,469.8215 249.6875,454.3125 L 253.90625,452.5 L 252.5,413.4375 L 33.46875,332.53125 z "
             style="fill:#ececec;fill-rule:evenodd;stroke:#000000;stroke-width:4;stroke-linecap:butt;stroke-linejoin:miter;stroke-miterlimit:4;stroke-dasharray:none;stroke-opacity:1" />
          <path
             id="path5093"
             d="M 710.0625,332.53125 L 495.21875,413.4375 L 493.84375,452.5 L 500.03125,455.1875 C 560.30205,470.36157 620.27201,496.3371 679.9375,533 L 690.53125,537.59375 C 711.00039,464.12879 711.44057,398.84918 710.0625,332.53125 z "
             style="fill:#ececec;fill-rule:evenodd;stroke:#000000;stroke-width:4;stroke-linecap:butt;stroke-linejoin:miter;stroke-miterlimit:4;stroke-dasharray:none;stroke-opacity:1" />
          <path
             id="path5101"
             d="M 64.15625,123.28125 L 282.71875,356.53125 C 295.84996,341.47668 312.59361,329.64465 331.59375,322.40625 L 276.21875,123.28125 L 64.15625,123.28125 z "
             style="fill:#ececec;fill-opacity:1;fill-rule:evenodd;stroke:#000000;stroke-width:4;stroke-linecap:butt;stroke-linejoin:miter;stroke-miterlimit:4;stroke-dasharray:none;stroke-opacity:1" />
          <path
             id="path6072"
             d="M 475.6875,123.28125 L 420.15625,322.90625 C 438.97284,330.31076 455.51825,342.2166 468.46875,357.3125 L 687.75,123.28125 L 475.6875,123.28125 z "
             style="fill:#ececec;fill-opacity:1;fill-rule:evenodd;stroke:#000000;stroke-width:4;stroke-linecap:butt;stroke-linejoin:miter;stroke-miterlimit:4;stroke-dasharray:none;stroke-opacity:1" />
        </g>
      </g>
      <g
         id="g2217">
        <path
           sodipodi:nodetypes="cccc"
           id="path3143"
           d="M 56.495753,538.29705 C 271.35803,405.22353 482.41464,407.25103 689.83693,538.29705 C 671.43426,604.2833 640.0696,757.30892 373.8113,887.05531 C 128.35217,772.75847 90.454362,641.67692 56.495753,538.29705 z "
           style="opacity:1;fill:#008000;fill-rule:evenodd;stroke:#000000;stroke-width:4;stroke-linecap:butt;stroke-linejoin:miter;stroke-miterlimit:4;stroke-dasharray:none;stroke-opacity:1" />
        <g
           style="stroke:#000000;stroke-width:4;stroke-miterlimit:4;stroke-dasharray:none;stroke-opacity:1"
           id="g10012"
           transform="translate(1.3950144,0)">
          <g
             style="stroke:#000000;stroke-width:4;stroke-miterlimit:4;stroke-dasharray:none;stroke-opacity:1"
             id="g8056">
            <path
               style="fill:#ececec;fill-opacity:1;fill-rule:evenodd;stroke:#000000;stroke-width:4;stroke-linecap:butt;stroke-linejoin:miter;stroke-miterlimit:4;stroke-dasharray:none;stroke-opacity:1"
               d="M 189.72196,742.66899 L 299.92809,742.66899 L 299.92809,561.31712 L 186.93193,561.31712 L 189.72196,742.66899 z "
               id="path6096" />
            <path
               style="fill:#ff0000;fill-opacity:1;fill-rule:evenodd;stroke:#000000;stroke-width:4;stroke-linecap:butt;stroke-linejoin:miter;stroke-miterlimit:4;stroke-dasharray:none;stroke-opacity:1"
               d="M 186.93193,559.92211 L 299.92809,559.92211 L 246.91754,473.43121 L 186.93193,559.92211 z "
               id="path7069"
               sodipodi:nodetypes="cccc" />
          </g>
          <g
             style="stroke:#000000;stroke-width:4;stroke-miterlimit:4;stroke-dasharray:none;stroke-opacity:1"
             transform="translate(259.47267,0)"
             id="g8060">
            <path
               id="path8062"
               d="M 189.72196,742.66899 L 299.92809,742.66899 L 299.92809,561.31712 L 186.93193,561.31712 L 189.72196,742.66899 z "
               style="fill:#ececec;fill-opacity:1;fill-rule:evenodd;stroke:#000000;stroke-width:4;stroke-linecap:butt;stroke-linejoin:miter;stroke-miterlimit:4;stroke-dasharray:none;stroke-opacity:1" />
            <path
               sodipodi:nodetypes="cccc"
               id="path8064"
               d="M 186.93193,559.92211 L 299.92809,559.92211 L 246.91754,473.43121 L 186.93193,559.92211 z "
               style="fill:#ff0000;fill-opacity:1;fill-rule:evenodd;stroke:#000000;stroke-width:4;stroke-linecap:butt;stroke-linejoin:miter;stroke-miterlimit:4;stroke-dasharray:none;stroke-opacity:1" />
          </g>
          <g
             style="stroke:#000000;stroke-width:4;stroke-miterlimit:4;stroke-dasharray:none;stroke-opacity:1"
             id="g10008">
            <path
               style="opacity:1;fill:#ececec;fill-opacity:1;fill-rule:evenodd;stroke:#000000;stroke-width:4;stroke-linecap:butt;stroke-linejoin:miter;stroke-miterlimit:4;stroke-dasharray:none;stroke-opacity:1"
               d="M 299.92809,741.27398 L 447.79962,741.27398 L 447.79962,583.63735 L 424.08437,583.63735 L 424.08437,610.14262 L 391.99904,610.14262 L 391.99904,583.63735 L 351.54362,583.63735 L 351.54362,610.14262 L 323.64334,610.14262 L 323.64334,585.03236 L 299.92809,585.03236 L 299.92809,741.27398 z "
               id="path8066" />
            <path
               style="fill:#ececec;fill-opacity:1;fill-rule:evenodd;stroke:#000000;stroke-width:4;stroke-linecap:butt;stroke-linejoin:miter;stroke-miterlimit:4;stroke-dasharray:none;stroke-opacity:1"
               d="M 341.77852,739.87896 L 412.92426,739.87896 L 412.92426,693.84349 C 413.85427,659.07331 340.84852,659.08617 340.38351,693.84349 L 341.77852,739.87896 z "
               id="path9037"
               sodipodi:nodetypes="ccccc" />
          </g>
        </g>
      </g>
    </g>
  </g>
</svg>

<svg xmlns="http://www.w3.org/2000/svg" width="688.969" height="767.774" version="1.0"><path style="fill:red;fill-rule:evenodd;stroke:#000;stroke-width:4;stroke-linecap:butt;stroke-linejoin:miter;stroke-miterlimit:4;stroke-dasharray:none;stroke-opacity:1" d="M29.281 123.281c9.245 138.053-5.337 282.012 26.875 414.375 214.495-132.407 425.202-130.173 632.282.657-18.03 64.65-48.54 212.843-300.188 340.843 387.676-180.936 307.85-480.877 326-755.875H29.281zm31.844 433.375c10.679 37.996 25.556 74.954 46.375 110.438-21.819-38.46-34.941-75.768-46.375-110.438z" transform="translate(-27.281 -121.281)"/><path d="M375.25 314.406c-67.764 0-122.75 54.986-122.75 122.75 0 5.5.392 10.91 1.094 16.219 81.626-19.204 162.69-18.756 243.219 1a123.603 123.603 0 0 0 1.218-17.219c0-67.764-55.017-122.75-122.781-122.75z" style="opacity:1;fill:#ececec;fill-opacity:1;fill-rule:evenodd;stroke:#000;stroke-width:4;stroke-linecap:butt;stroke-linejoin:round;stroke-miterlimit:4;stroke-dasharray:none;stroke-dashoffset:0;stroke-opacity:1" transform="translate(-27.281 -121.281)"/><path d="M33.469 332.531c4.837 66.167 8.147 131.302 23.625 204.563 64.535-39.722 128.74-67.273 192.594-82.782l4.218-1.812-1.406-39.063-219.031-80.906zM710.063 332.531l-214.844 80.906-1.375 39.063 6.187 2.688c60.271 15.174 120.241 41.15 179.906 77.812l10.594 4.594c20.47-73.465 20.91-138.745 19.532-205.063z" style="fill:#ececec;fill-rule:evenodd;stroke:#000;stroke-width:4;stroke-linecap:butt;stroke-linejoin:miter;stroke-miterlimit:4;stroke-dasharray:none;stroke-opacity:1" transform="translate(-27.281 -121.281)"/><path d="m64.156 123.281 218.563 233.25c13.131-15.054 29.875-26.886 48.875-34.125l-55.375-199.125H64.156zM475.688 123.281l-55.532 199.625c18.817 7.405 35.362 19.31 48.313 34.406l219.281-234.03H475.687z" style="fill:#ececec;fill-opacity:1;fill-rule:evenodd;stroke:#000;stroke-width:4;stroke-linecap:butt;stroke-linejoin:miter;stroke-miterlimit:4;stroke-dasharray:none;stroke-opacity:1" transform="translate(-27.281 -121.281)"/><g><path d="M56.496 538.297c214.862-133.073 425.919-131.046 633.34 0-18.402 65.986-49.766 219.012-316.025 348.758C128.352 772.758 90.454 641.677 56.496 538.297z" style="opacity:1;fill:green;fill-rule:evenodd;stroke:#000;stroke-width:4;stroke-linecap:butt;stroke-linejoin:miter;stroke-miterlimit:4;stroke-dasharray:none;stroke-opacity:1" transform="translate(-27.281 -121.281)"/><g style="stroke:#000;stroke-width:4;stroke-miterlimit:4;stroke-dasharray:none;stroke-opacity:1"><g style="stroke:#000;stroke-width:4;stroke-miterlimit:4;stroke-dasharray:none;stroke-opacity:1"><path style="fill:#ececec;fill-opacity:1;fill-rule:evenodd;stroke:#000;stroke-width:4;stroke-linecap:butt;stroke-linejoin:miter;stroke-miterlimit:4;stroke-dasharray:none;stroke-opacity:1" d="M189.722 742.669h110.206V561.317H186.932l2.79 181.352z" transform="translate(-25.886 -121.281)"/><path style="fill:red;fill-opacity:1;fill-rule:evenodd;stroke:#000;stroke-width:4;stroke-linecap:butt;stroke-linejoin:miter;stroke-miterlimit:4;stroke-dasharray:none;stroke-opacity:1" d="M186.932 559.922h112.996l-53.01-86.49-59.986 86.49z" transform="translate(-25.886 -121.281)"/></g><g style="stroke:#000;stroke-width:4;stroke-miterlimit:4;stroke-dasharray:none;stroke-opacity:1"><path d="M189.722 742.669h110.206V561.317H186.932l2.79 181.352z" style="fill:#ececec;fill-opacity:1;fill-rule:evenodd;stroke:#000;stroke-width:4;stroke-linecap:butt;stroke-linejoin:miter;stroke-miterlimit:4;stroke-dasharray:none;stroke-opacity:1" transform="translate(233.586 -121.281)"/><path d="M186.932 559.922h112.996l-53.01-86.49-59.986 86.49z" style="fill:red;fill-opacity:1;fill-rule:evenodd;stroke:#000;stroke-width:4;stroke-linecap:butt;stroke-linejoin:miter;stroke-miterlimit:4;stroke-dasharray:none;stroke-opacity:1" transform="translate(233.586 -121.281)"/></g><g style="stroke:#000;stroke-width:4;stroke-miterlimit:4;stroke-dasharray:none;stroke-opacity:1"><path style="opacity:1;fill:#ececec;fill-opacity:1;fill-rule:evenodd;stroke:#000;stroke-width:4;stroke-linecap:butt;stroke-linejoin:miter;stroke-miterlimit:4;stroke-dasharray:none;stroke-opacity:1" d="M299.928 741.274H447.8V583.637h-23.716v26.506H392v-26.506h-40.455v26.506h-27.9v-25.11h-23.716v156.241z" transform="translate(-25.886 -121.281)"/><path style="fill:#ececec;fill-opacity:1;fill-rule:evenodd;stroke:#000;stroke-width:4;stroke-linecap:butt;stroke-linejoin:miter;stroke-miterlimit:4;stroke-dasharray:none;stroke-opacity:1" d="M341.779 739.879h71.145v-46.036c.93-34.77-72.075-34.757-72.54 0l1.395 46.036z" transform="translate(-25.886 -121.281)"/></g></g></g></svg>
